X:15
T:Polska efter Marius Nytr{\o}en, Vingelen
R:polska K1
O:Norway
Z:id:hn-k1-15
M:3/4
L:1/8
K:Glyd
d|dc AB G>B|BA FG D2|G>E FG A<B|B>A Bc d>d|
dc AB G>B|BA FG D2|G>E FG (3ABA|G2 G3:|
|:D|(3DEF (3GAB A>F|(3GAB (3ABG D>D|(3DEF (3GAB A>F|(3GAB (3ABe d>D|
(3DEF (3GAB A>F|(3GAB (3ABG D>D|(3DEF (3GAB A>F|G2 G3:|

